X:439
T:Reel 439
M:4/4
K:Gmaj
L:1/8
dc|BGAF D>G (3GFG |AFcF dFcF|BGAF DGG2| (3Bcd cA dcBA|BGAF D2GA|BdcA dBcA|BGAF DGG2| (3ABc AG G2|GA|BGBG dGBG|AFDF  (3FFF Ac|BABc d2gf| (3def eg fage|f|gabg dgfg|adde fdcA|BdGA BGAG|FDEF G2|
